!!!!SEGMENT: pl-wtm--r-1690--006_stefani-jozef--oj-zoneczka-no-5.krn
!!!cenid: 18xx:2312
!!!COM: Stefani, Józef
!!!COM-rismid: pe30024097
!!!CDT: 1800/04/16-1876/03/19
!!!CNT: Polish
!!!OTL: Oj żoneczka – No. 5
!!!PDT:
!!!AGN: Secular
!!!SMS-siglum: PL-Wtm
!!!SMS-shelfmark: R 1690
!!!SMS-shelfwork: 001-006 M
!!!SMS-variant:
!!!SMS-altvar:
!!!NIFC-rismid: 1001114714
!!!OMD: Andante.
!!!system-decoration: [(s1,s2,s3,s4,s5)]
**kern	**dynam	**kern	**dynam	**kern	**dynam	**kern	**dynam	**kern	**text
*part5	*part5	*part4	*part4	*part3	*part3	*part2	*part2	*part1	*part1
*staff5	*	*staff4	*	*staff3	*	*staff2	*	*staff1	*staff1
*I"V: C: C: B:	*	*I"Viola.	*	*I"V II	*	*I"V I	*	*I"Śpiew	*
*I'bc	*	*I'vla	*	*I'vl 2	*	*I'vl 1	*	*I'V	*
*clefF4	*	*clefC3	*	*clefG2	*	*clefG2	*	*clefG2	*
*k[]	*	*k[]	*	*k[]	*	*k[]	*	*k[]	*
*M4/4	*	*M4/4	*	*M4/4	*	*M4/4	*	*M4/4	*
*met(c)	*	*met(c)	*	*met(c)	*	*met(c)	*	*met(c)	*
=1	=1	=1	=1	=1	=1	=1	=1	=1	=1
!	!LO:DY:b:rj	!	!LO:DY:b:rj	!	!LO:DY:b:rj	!	!LO:DY:b:rj	!	!
8A\	p	8e\	p	8a/	p	8cc\	p	1r	.
8r	.	8r	.	8r	.	8r	.	.	.
8E\	.	8e\	.	8g#X/	.	8b\	.	.	.
8r	.	8r	.	8r	.	8r	.	.	.
2r	.	2r	.	2e^</	.	2ee^<\	.	.	.
=2	=2	=2	=2	=2	=2	=2	=2	=2	=2
8A\	.	8e\	.	8a/	.	8cc\	.	1r	.
8r	.	8r	.	8r	.	8r	.	.	.
8E\	.	8e\	.	8g#X/	.	8b\	.	.	.
8r	.	8r	.	8r	.	8r	.	.	.
2E^<\	.	2e^<\	.	2r	.	2r	.	.	.
=3	=3	=3	=3	=3	=3	=3	=3	=3	=3
*	*	*	*	*tremolo	*	*tremolo	*	*	*
!	!	!	!	!	!	!	!	!LO:TX:a:Bi:t=Wincenty	!
!	!LO:DY:b:rj	!	!LO:DY:b:rj	!	!LO:DY:b:rj	!	!LO:DY:b:rj	!	!
4AA/	p	4A/	p	(<8c/L	p	(<8e/L	p	4a/	My-
.	.	.	.	8a/	.	8a/	.	.	.
4r	.	4r	.	8c/	.	8e/	.	8.a/	-dła
.	.	.	.	8a/J)	.	8a/J)	.	.	.
.	.	.	.	.	.	.	.	16a/	par-
!!LO:LB:=original
4E\	.	4e\	.	(<8e/L	.	(<8g#X/L	.	4.b/	-fu-
.	.	.	.	8b/	.	8b/	.	.	.
4r	.	4r	.	8e/	.	8g#/	.	.	.
.	.	.	.	8b/J)	.	8b/J)	.	8b/	-my
*	*	*	*	*Xtremolo	*	*Xtremolo	*	*	*
=4	=4	=4	=4	=4	=4	=4	=4	=4	=4
8.AA/L	.	8.e\L	.	8.a/L	.	8.cc\L	.	8.cc\	rzu-
16BB/K	.	16d\K	.	16f/K	.	16b\K	.	16b\	-cam
8.C/	.	8.c\	.	8.e/	.	8.a\	.	8.a/	was
16D/Jk	.	16d\Jk	.	16f/Jk	.	16b\Jk	.	16b/	stro-
*	*	*	*	*tremolo	*	*tremolo	*	*	*
4E\	.	4e\	.	(<8e/L	.	(<8g#X/L	.	4g#X/	-ska-
.	.	.	.	8B/	.	8B/	.	.	.
4D\	.	4d\	.	8e/	.	8g#/	.	8e/	-ny.
.	.	.	.	8B/J)	.	8B/J)	.	8e/	W tej
=5	=5	=5	=5	=5	=5	=5	=5	=5	=5
4C/	.	4c\	.	(<8e/L	.	(<8a/L	.	4.a/	chwi-
.	.	.	.	8c/	.	8e/	.	.	.
4r	.	4r	.	8e/	.	8a/	.	.	.
.	.	.	.	8c/J)	.	8e/J)	.	8a/	-li
4BB/	.	4B/	.	(<8g#X/L	.	(<8b/L	.	4.b/	przyjm-
.	.	.	.	8e/	.	8e/	.	.	.
4r	.	4r	.	8g#/	.	8b/	.	.	.
.	.	.	.	8e/J)	.	8e/J)	.	8b/	-cie
*	*	*	*	*Xtremolo	*	*Xtremolo	*	*	*
=6	=6	=6	=6	=6	=6	=6	=6	=6	=6
8AA/	.	8A/	.	8a/L	.	(>8cc\L	.	8.cc\	mo-
8r	.	8r	.	8e/	.	8e\	.	.	.
.	.	.	.	.	.	.	.	16cc\	-je
8F\	.	4A/	.	8d/	.	8dd\	.	8.dd\	po-
8r	.	.	.	8a/J	.	8a\J)	.	.	.
.	.	.	.	.	.	.	.	16dd\	-że-
4E\	.	4B/	.	4g#X/	.	4ee\	.	4ee\	-gna-
4r	.	4r	.	4r	.	4r	.	8e/	-nie
.	.	.	.	.	.	.	.	8r	.
=7	=7	=7	=7	=7	=7	=7	=7	=7	=7
*	*	*	*	*tremolo	*	*tremolo	*	*	*
4AA/	.	4A/	.	(<8c/L	.	(<8e/L	.	4a/	Z to-
.	.	.	.	8a/	.	8a/	.	.	.
4r	.	4r	.	8c/	.	8e/	.	8.a/	-bą
.	.	.	.	8a/J)	.	8a/J)	.	.	.
.	.	.	.	.	.	.	.	16a/	prze-
4GG/	.	4G/	.	(<8d/L	.	(<8f/L	.	4.b/	-dmio-
.	.	.	.	8b/	.	8b/	.	.	.
4r	.	4r	.	8d/	.	8f/	.	.	.
.	.	.	.	8b/J)	.	8b/J)	.	8b/	-cie
*	*	*	*	*Xtremolo	*	*Xtremolo	*	*	*
=8	=8	=8	=8	=8	=8	=8	=8	=8	=8
8.C/L	.	8.e\L	.	8.g/L	.	8.cc\L	.	8.cc\	lu-
16E/K	.	16g\K	.	16g/K	.	16cc\K	.	16cc\	-by
8.D/	.	8.g\	.	8.b/	.	8.dd\	.	8.dd\	u-
16C/Jk	.	16g\Jk	.	16cc/Jk	.	16ee\Jk	.	16ee\	-Ko-
4.G\	.	4.g\	.	(>8cc\L	.	(>8ee\L	.	4ee\	-cha-
.	.	.	.	8g\	.	8g\	.	.	.
.	.	.	.	8b\	.	8dd\	.	8dd\	-ny
8G\	.	8g\	.	8f\J)	.	8f\J)	.	8r	.
=9	=9	=9	=9	=9	=9	=9	=9	=9	=9
*	*	*	*	*tremolo	*	*tremolo	*	*	*
8G#X\	.	8g#X\	.	(8b\L	.	(8dd\L	.	4dd\	Łza-
8r	.	8r	.	8e\	.	8e\	.	.	.
8GG#X/	.	8G#X/	.	8b\	.	8dd\	.	8.ee\	-mi
8r	.	8r	.	8e\J)	.	8e\J)	.	.	.
.	.	.	.	.	.	.	.	16dd\	o-
*	*	*	*	*Xtremolo	*	*Xtremolo	*	*	*
8AA/	.	8.A/L	.	8.a/L	.	8.cc\L	.	4cc\	-ble-
8r	.	.	.	.	.	.	.	.	.
.	.	16c/K	.	16e/K	.	16cc\K	.	.	.
8AA/	.	8.G#X/	.	8.d/	.	8.b\	.	8.b\	-wam
8r	.	.	.	.	.	.	.	.	.
.	.	16A/Jk	.	16c/Jk	.	16a\Jk	.	16a/	to
!!LO:LB:g=original
=10	=10	=10	=10	=10	=10	=10	=10	=10	=10
8BB/	.	8B/	.	(<8e/L	.	(<8g/L	.	4g/	smu-
8r	.	8r	.	8B/	.	8B/	.	.	.
8BB/	.	8B/	.	8d#X/	.	8f#X/	.	8.f#X/	-tne
8r	.	8r	.	8B/J)	.	8B/J)	.	.	.
.	.	.	.	.	.	.	.	16b/	roz-
8E\	.	8e\	.	(<8d#/L	.	(<8f#/L	.	4b/	-sta-
8r	.	8r	.	8A/	.	8A/	.	.	.
8BB/	.	8B/	.	8G/J)	.	8eJ 8G/)	.	16e/	-nie
.	.	.	.	.	.	.	.	16r	.
8r	.	8r	.	8r	.	8r	.	8b/	Lecz
=11	=11	=11	=11	=11	=11	=11	=11	=11	=11
*	*	*	*	*tremolo	*	*tremolo	*	*	*
4GG/	.	4G/	.	(<8dn/L	.	(<8fn/L	.	(<4b/	w któ-
.	.	.	.	8G/	.	8G/	.	.	.
4r	.	4r	.	8d/	.	8f/	.	8.a/)	.
.	.	.	.	8G/J)	.	8G/J)	.	.	.
.	.	.	.	.	.	.	.	16b/	-rém-
4C/	.	4c\	.	(<8c/L	.	(<8e/L	.	4cc/	-kol-
.	.	.	.	8G/	.	8G/	.	.	.
4r	.	4r	.	8c/	.	8e/	.	4g/	-wiek
.	.	.	.	8G/J)	.	8G/J)	.	.	.
=12	=12	=12	=12	=12	=12	=12	=12	=12	=12
*rep	*	*rep	*	*rep	*	*rep	*	*	*
4GG/	.	4G/	.	(<8dn/L	.	(<8fn/L	.	8.dd\	znaj-
.	.	.	.	8G/	.	8G/	.	.	.
.	.	.	.	.	.	.	.	16dd\	-dę
4r	.	4r	.	8d/	.	8f/	.	8.cc\	się
.	.	.	.	8G/J)	.	8G/J)	.	.	.
.	.	.	.	.	.	.	.	16dd\	schro-
4C/	.	4c\	.	(<8c/L	.	(<8e/L	.	4ee\	-nie-
.	.	.	.	8G/	.	8G/	.	.	.
4r	.	4r	.	8c/	.	8e/	.	8cc\	-niu,
.	.	.	.	8G/J)	.	8G/J)	.	8cc\	Gdy
*Xrep	*	*Xrep	*	*Xrep	*	*Xrep	*	*	*
=13	=13	=13	=13	=13	=13	=13	=13	=13	=13
4BB/	.	4B\	.	(<8G#X/L	.	(<8d/L	.	4.ee\	bzu
.	.	.	.	8e/	.	8e/	.	.	.
4r	.	4r	.	8G#/	.	8d/	.	.	.
.	.	.	.	8e/J)	.	8e/J)	.	8dd\	lub
4AA/	.	4A/	.	(<8A/L	.	(<8c/L	.	4.cc\	ró-
.	.	.	.	8e/	.	8e/	.	.	.
4r	.	4r	.	8A/	.	8c/	.	.	.
.	.	.	.	8e/J)	.	8e/J)	.	8cc\	-ży
=14	=14	=14	=14	=14	=14	=14	=14	=14	=14
4FF/	.	4F/	.	(<8c/L	.	8d#X/L	.	8.cc\	za-
.	.	.	.	8a/	.	8a/	.	.	.
.	.	.	.	.	.	.	.	16cc\	-pach
4r	.	4r	.	8c/	.	8d#/	.	8.b\	mię
.	.	.	.	8a/J)	.	8a/J	.	.	.
.	.	.	.	.	.	.	.	16a/	do-
*	*	*	*	*Xtremolo	*	*Xtremolo	*	*	*
4E\	.	4E/	.	4c/	.	8d#/L	.	4cc/	-le-
.	.	.	.	.	.	8a/	.	.	.
8E\	.	8E/	.	8B/	.	8g#X/J	.	16b/	-ci
.	.	.	.	.	.	.	.	16r	.
8r	.	8r	.	8r	.	8r	.	8e/	O-
=15	=15	=15	=15	=15	=15	=15	=15	=15	=15
*	*	*	*	*tremolo	*	*tremolo	*	*	*
4AA/	.	4A/	.	(<8c/L	.	(<8e/L	.	4.a/	-bra-
.	.	.	.	8a/	.	8a/	.	.	.
4r	.	4r	.	8c/	.	8e/	.	.	.
.	.	.	.	8a/J)	.	8a/J)	.	8a/	-zu
4E\	.	4e\	.	(<8e/L	.	(<8g#X/L	.	4.b/	twe-
.	.	.	.	8b/	.	8b/	.	.	.
4r	.	4r	.	8e/	.	8g#/	.	.	.
.	.	.	.	8b/J)	.	8b/J)	.	8b/	-go
*	*	*	*	*Xtremolo	*	*Xtremolo	*	*	*
=16	=16	=16	=16	=16	=16	=16	=16	=16	=16
8.AA/L	.	8.e\L	.	8.a/L	.	8.cc\L	.	8.cc\	wnet
16BB/K	.	16d\K	.	16f/K	.	16b\K	.	16b\	myśl
8.C/	.	8.c\	.	8.e/	.	8.a\	.	8.a/	się
!LO:TX:b:Bi:t=VS.	!	!	!	!	!	!	!	!	!
16D/Jk	.	16d\Jk	.	16f/Jk	.	16b\Jk	.	16b/	za-
!!LO:PB:g=original
*	*	*	*	*tremolo	*	*tremolo	*	*	*
4E\	.	4e\	.	(<8e/L	.	(<8g#X/L	.	4g#X/	-le-
.	.	.	.	8B/	.	8B/	.	.	.
4D\	.	4d\	.	8e/	.	8g#/	.	8e/	-ci
.	.	.	.	8B/J)	.	8B/J)	.	8e/	Bo
=17	=17	=17	=17	=17	=17	=17	=17	=17	=17
4C/	.	4c\	.	(<8e/L	.	(<8a/L	.	4.a/	tkwi
.	.	.	.	8c/	.	8e/	.	.	.
4r	.	4r	.	8e/	.	8a/	.	.	.
.	.	.	.	8c/J)	.	8e/J)	.	8a/	i
*	*	*	*	*Xtremolo	*	*Xtremolo	*	*	*
4D;>/	.	4B-X;>\	.	4f;>/	.	4b-X;>\	.	4ff;>\	w ser-
4r	.	4r	.	4r	.	4r	.	8dd\	-cu
.	.	.	.	.	.	.	.	8b-X\	i
=18	=18	=18	=18	=18	=18	=18	=18	=18	=18
8E\	.	8.A/L	.	8.c/L	.	8.a/L	.	4a/	w mém
8r	.	.	.	.	.	.	.	.	.
.	.	16A/K	.	16c/K	.	16a/K	.	.	.
8E\	.	8.E/	.	8.e/	.	8.cc/	.	8.cc/	po-
8r	.	.	.	.	.	.	.	.	.
.	.	16G#X/Jk	.	16d/Jk	.	16bn/Jk	.	16bn/	-wo-
8AA/	.	(<8G#/L	.	(<8d/L	.	(<8b/L	.	4b/	-nie-
8r	.	8B/	.	8g#X/	.	8d/	.	.	.
8AA/	.	8G#/J)	.	8a/J)	.	8aJ 8c/)	.	8a/	-niu
8r	.	8r	.	8r	.	8r	.	8r	.
=19	=19	=19	=19	=19	=19	=19	=19	=19	=19
2E\	.	2d\	.	2g#X/	.	(>4ee\	.	1r	.
.	.	.	.	.	.	8ff\L	.	.	.
.	.	.	.	.	.	8ee\J)	.	.	.
8A\	.	8c\	.	4a/	.	8cc\	.	.	.
8r	.	8r	.	.	.	8r	.	.	.
4r	.	4r	.	4r	.	4r	.	.	.
=20	=20	=20	=20	=20	=20	=20	=20	=20	=20
2E\	.	(>8B\L	.	(<8d/L	.	2g#X/	.	1r	.
.	.	8d\	.	8f/	.	.	.	.	.
.	.	8c\	.	8e/	.	.	.	.	.
.	.	8B\J)	.	8d/J)	.	.	.	.	.
8AA/	.	8A/	.	8c/	.	8a/	.	.	.
8r	.	8r	.	8r	.	8r	.	.	.
4r	.	4r	.	4r	.	4r	.	.	.
==	==	==	==	==	==	==	==	==	==
*-	*-	*-	*-	*-	*-	*-	*-	*-	*-
!!title: @{OTL};
!!!RDF**kern: > = above
!!!RDF**kern: < = below
!!!RDF**kern: | = vertical stroke
!!!RDF**kern: N = linked
!!!RDF**kern: i = editorial accidental
!!!EED: Wojciech Jakubiak-Danek
!!!EST: 2021-06-09
!!!URL-scan: http://repozytorium.nifc.pl/skany/pl-wtm-nut--r1690
!!!ONB-nifc: UWAGA: skany 0010-0011
!!!ENC: Anastazja Marusiak
!!!END: 2021-06-02
